packages/blockchain-info-components/src/Images/img/swap-modal-bg.svg

<svg fill="none" height="215" viewBox="0 0 440 215" width="440" xmlns="http://www.w3.org/2000/svg" xmlns:xlink="http://www.w3.org/1999/xlink"><clipPath id="a"><path d="m0 0h440v215h-440z"/></clipPath><clipPath id="b"><path d="m0 0h72.9519v72.9519h-72.9519z" transform="matrix(.5 -.8660254 .8660254 .5 142 19.1782)"/></clipPath><clipPath id="c"><path d="m0 0h88.2925v88.2925h-88.2925z" transform="matrix(.94342539 .33158489 -.33158489 .94342539 388.276 132)"/></clipPath><clipPath id="d"><path d="m0 0h62.326v62.326h-62.326z" transform="matrix(.94342539 .33158489 -.33158489 .94342539 401.667 5)"/></clipPath><clipPath id="e"><path d="m0 0h72.9583v72.9583h-72.9583z" transform="matrix(.91158418 -.41111346 .41111346 .91158418 26 177.994)"/></clipPath><g clip-path="url(#a)"><path d="m440 0h-440v215h440z" fill="#0d0d42"/><g clip-path="url(#b)"><path d="m223.416 24.0651c10.073-17.44621 4.095-39.7546-13.351-49.8271-17.446-10.0726-39.754-4.0951-49.827 13.3511s-4.095 39.7545 13.351 49.8271 39.755 4.0951 49.827-13.3511z" fill="#ff9b22"/><path d="m196.112-10.6233c-3.78-3.0091-7.825-1.1408-11.797 2.30998l-4.8-4.63508-2.819 2.9215 4.673 4.51403c-.743.76639-1.483 1.5656-2.223 2.36283l-4.702-4.54442-2.821 2.92034 4.798 4.63392c-.598.644314-1.186 1.27906-1.771 1.88328l-.016-.01421-3.892 4.02855 3.12 3.0124s2.043-2.19793 2.048-2.12411c1.143-1.18254 2.201-.90354 2.904-.44261l5.468 5.2788c.078-.0811.185-.183.318-.2904l-.298.31 7.66 7.3969c.32.4114.703 1.2035-.095 2.033.07-.0071-2.049 2.1229-2.049 2.1229l2.927 3.9487 3.672-3.8028c.684-.7056 1.368-1.3896 2.031-2.0679l4.855 4.6854 2.818-2.9195-4.8-4.6351c.789-.7871 1.544-1.5568 2.275-2.3137l4.779 4.6175 2.819-2.9215-4.844-4.6785c4.462-5.18428 6.544-9.81584 2.344-14.69679-3.38-3.93085-6.725-3.78542-10.086-1.64313.774-2.52735.276-5.05244-2.496-7.25028zm6.432 14.11114c3.631 3.49962-2.782 9.31336-4.692 11.29556l-6.43-6.21279c1.915-1.97992 7.34-8.73745 11.122-5.08277zm-10.385-7.40422c3.3 3.187671-2.089 7.99453-3.68 9.6425l-5.831-5.6304775c1.591-1.6479725 6.068-7.3368925 9.511-4.0120225z" fill="#fff"/></g><g clip-path="url(#c)"><path d="m400.649 229.936c23.002 8.084 48.202-4.009 56.287-27.011 8.084-23.002-4.009-48.202-27.011-56.287-23.002-8.084-48.202 4.009-56.287 27.011-8.084 23.002 4.009 48.202 27.011 56.287z" fill="#8dc351"/><path d="m433.842 178.823c-.216-5.844-5.119-8.087-11.42-9.015l.473-8.061-4.905-.288-.461 7.852c-1.289-.079-2.611-.128-3.923-.18l.467-7.902-4.903-.29-.478 8.059c-1.062-.04-2.107-.08-3.124-.139l.001-.029-6.767-.399-.308 5.244s3.629.141 3.563.206c1.989.117 2.567 1.308 2.695 2.316l-.536 9.182c.134.009.313.025.516.064l-.519-.03-.758 12.865c-.124.62-.549 1.596-1.937 1.518.058.059-3.57-.213-3.57-.213l-1.317 5.804 6.385.373c1.187.075 2.355.163 3.502.236l-.476 8.153 4.9.289.474-8.066c1.306.103 2.612.192 3.919.266l-.476 8.03 4.908.29.479-8.138c8.276.011 14.172-1.728 15.345-9.434.945-6.202-1.823-9.158-6.44-10.558 2.93-1.281 4.857-3.727 4.69-8.003zm-7.886 17.028c-.358 6.094-10.749 4.788-14.074 4.596l.635-10.803c3.324.195 13.809-.147 13.435 6.208zm-1.387-15.374c-.329 5.543-8.991 4.385-11.761 4.222l.577-9.797c2.768.163 11.522-.205 11.183 5.577z" fill="#fff"/></g><g clip-path="url(#d)"><path d="m410.4 74.1331c16.237 5.7069 34.026-2.8296 39.733-19.0667 5.707-16.2372-2.829-34.0263-19.067-39.7332-16.237-5.70687-34.026 2.8296-39.733 19.0668-5.707 16.2371 2.83 34.0263 19.067 39.7331z" fill="#000"/><g fill="#fff"><path d="m437.982 37.8139-5.217.6992-25.193 3.3736c.121-.5765.28-1.1445.475-1.7004.782-2.2166 2.13-4.1904 3.91-5.7258s3.93-2.5792 6.238-3.028c2.307-.4487 4.692-.2869 6.917.4695 2.226.7564 4.215 2.0812 5.771 3.843l2.987-.4003.445-.06c-1.728-2.4995-4.114-4.4725-6.893-5.7009-2.78-1.2285-5.845-1.6645-8.857-1.2598-3.011.4046-5.853 1.6341-8.21 3.5525-2.356 1.9185-4.137 4.4512-5.144 7.3183-.139.396-.263.7956-.371 1.1991-.153.5711-.472 1.0841-.917 1.4744-.444.3903-.994.6405-1.58.719l-1.575.2116-1.116 3.1766 4.636-.6222 1.502-.2023 1.48-.1981 26.56-3.5604 2.984-.3993 6.17-.8277 1.115-3.1749z"/><path d="m441.865 43.3469-34.201 4.5748-2.986.4024-6.141.8234-1.115 3.1734 6.099-.8173 5.217-.6993 25.221-3.3815c-.123.5802-.283 1.1518-.479 1.7113-.782 2.2197-2.131 4.1964-3.913 5.7338-1.781 1.5374-3.934 2.582-6.245 3.0302-2.31.4481-4.697.2842-6.925-.4755-2.227-.7597-4.217-2.0888-5.772-3.8553l-.184.0277-3.238.4343c1.728 2.4994 4.113 4.4725 6.892 5.7013s5.843 1.6655 8.855 1.2618c3.011-.4038 5.853-1.6322 8.21-3.5496 2.357-1.9173 4.138-4.449 5.146-7.3152.141-.3996.266-.8047.375-1.21.153-.5709.472-1.0837.916-1.4741.444-.3903.993-.6408 1.579-.7199l1.577-.2111z"/></g></g><g clip-rule="evenodd" fill-rule="evenodd"><path d="m-14.6271 60.9159c.5978-1.9565 1.1793-3.6584 1.7984-5.1431-18.365 7.5755-7.1499 18.3845-7.005 34.444.1676 18.4952 10.41101 20.9522 22.54907 17.6832-2.408939-1.158-4.65111-2.713-6.66394-4.577-11.52983-5.9964-16.22263-24.2784-10.67853-42.4071z" fill="#a2d900"/><path d="m36.3397 57.7123c.4716 5.5396-.2006 12.2974-2.1892 19.5471-1.5508 5.6494-3.8765 10.5966-6.7267 14.7051-3.1877 4.9869-8.0077 9.2555-14.2741 12.0815-3.50775 1.582-7.04506 2.941-10.43495 3.854 2.86677 1.376 5.96598 2.194 9.18415 2.289 19.9606.594 14.3131-14.6859 28.2365-30.0109 7.8185-8.6062 4.1327-16.8743-3.7957-22.4658z" fill="#3d9ccc"/><path d="m9.1361 51.4294c2.6135-.6453 5.2645-.8782 7.8417-.6355 6.9089.6547 14.077 3.1915 19.3615 6.9182-.8254-9.6968-5.1651-15.6557-12.1528-13.9376-7.6779 1.8907-13.4095 3.9704-20.42564 2.6248-8.64138-1.6578-13.70447 2.4577-16.58976 9.3746.357-.148.7237-.2939 1.1035-.4392 7.10784-2.7111 14.32659-4.3319 20.8615-3.9053z" fill="#ffd919"/><path d="m-14.6271 60.916c-5.5441 18.1287-.8513 36.4107 10.67856 42.407-6.80596-6.3033-10.95846-16.1215-9.81526-25.9711 1.5212-13.1141 11.88391-23.2059 22.90099-25.9217-6.53572-.4284-13.75366 1.1942-20.86049 3.9027-.3816.1461-.7475.2938-1.1054.44-.6191 1.4847-1.2005 3.1866-1.7984 5.1431z" fill="#62b247"/><path d="m16.9779 50.7947c-2.5781-.2445-5.2283-.0098-7.84173.6355 8.60533.5617 16.02103 4.6824 20.42523 14.5866 3.8197 8.5936 2.842 18.1518-2.138 25.9483 2.8503-4.1084 5.1777-9.0565 6.7267-14.705 1.9905-7.2505 2.6608-14.0076 2.1893-19.5471-5.2845-3.7268-12.4535-6.2654-19.3615-6.9183z" fill="#009367"/><path d="m24.1579 87.7846c-5.5479 8.6077-17.01663 11.0568-25.61852 5.4698-8.60188-5.587-10.67068-16.8436-5.53362-25.704 5.7453-9.9066 17.71124-12.4172 25.61854-5.4697 7.7107 6.7738 11.0798 17.0971 5.5336 25.7039zm-15.02103-36.3554c-11.01627 2.7176-21.37977 12.8076-22.90097 25.9217-1.1432 9.8497 3.0083 19.6705 9.81523 25.9711 2.01283 1.864 4.25403 3.422 6.66476 4.579 3.38989-.913 6.92639-2.274 10.43231-3.855 6.2682-2.827 11.0882-7.0949 14.2741-12.081 4.9826-7.7956 5.9595-17.3556 2.138-25.9484-4.4024-9.9049-11.8199-14.0249-20.42343-14.5874z" fill="#00522c"/></g><g clip-path="url(#e)"><path d="m89.2479 229.505c18.3651-8.283 26.5391-29.886 18.2571-48.251-8.283-18.366-29.8856-26.54-48.2512-18.257s-26.5394 29.885-18.2567 48.251c8.2826 18.366 29.8853 26.539 48.2508 18.257z" fill="#473bcb"/><g fill="#fff"><path d="m64.8769 175.468 6.9297 15.365 15.6045-.053z"/><path d="m64.8769 175.468-3.442 27.027 10.3717-11.662z"/><path d="m78.9145 206.594 4.7087 10.441 4.8872-23.841z"/><path d="m83.6232 217.035-4.7087-10.441-16.3889-1.681z"/><path d="m77.8247 204.177 9.5864-13.397-15.6029.057z"/><path d="m61.4349 202.495 16.3898 1.682-6.0165-13.34z"/></g></g></g></svg>

<svg width="440" height="215" viewBox="0 0 440 215" fill="none" xmlns="http://www.w3.org/2000/svg">
<g clip-path="url(#clip0)">
<path d="M440 0H0V215H440V0Z" fill="#0D0D42"/>
<g clip-path="url(#clip1)">
<path d="M223.416 24.0651C233.489 6.61889 227.511 -15.6895 210.065 -25.762C192.619 -35.8346 170.311 -29.8571 160.238 -12.4109C150.165 5.0353 156.143 27.3436 173.589 37.4162C191.035 47.4888 213.344 41.5113 223.416 24.0651Z" fill="#FF9B22"/>
<path d="M196.112 -10.6233C192.332 -13.6324 188.287 -11.7641 184.315 -8.31332L179.515 -12.9484L176.696 -10.0269L181.369 -5.51287C180.626 -4.74648 179.886 -3.94727 179.146 -3.15004L174.444 -7.69446L171.623 -4.77412L176.421 -0.1402C175.823 0.504114 175.235 1.13886 174.65 1.74308L174.634 1.72887L170.742 5.75742L173.862 8.76982C173.862 8.76982 175.905 6.57189 175.91 6.64571C177.053 5.46317 178.111 5.74217 178.814 6.2031L184.282 11.4819C184.36 11.4008 184.467 11.2989 184.6 11.1915L184.302 11.5015L191.962 18.8984C192.282 19.3098 192.665 20.1019 191.867 20.9314C191.937 20.9243 189.818 23.0543 189.818 23.0543L192.745 27.003L196.417 23.2002C197.101 22.4946 197.785 21.8106 198.448 21.1323L203.303 25.8177L206.121 22.8982L201.321 18.2631C202.11 17.476 202.865 16.7063 203.596 15.9494L208.375 20.5669L211.194 17.6454L206.35 12.9669C210.812 7.78262 212.894 3.15106 208.694 -1.72989C205.314 -5.66074 201.969 -5.51531 198.608 -3.37302C199.382 -5.90037 198.884 -8.42546 196.112 -10.6233V-10.6233ZM202.544 3.48784C206.175 6.98746 199.762 12.8012 197.852 14.7834L191.422 8.57061C193.337 6.59069 198.762 -0.16684 202.544 3.48784ZM192.159 -3.91638C195.459 -0.728709 190.07 4.07815 188.479 5.72612L182.648 0.0956425C184.239 -1.55233 188.716 -7.24125 192.159 -3.91638Z" fill="white"/>
</g>
<g clip-path="url(#clip2)">
<path d="M400.649 229.936C423.651 238.02 448.851 225.927 456.936 202.925C465.02 179.923 452.927 154.723 429.925 146.638C406.923 138.554 381.723 150.647 373.638 173.649C365.554 196.651 377.647 221.851 400.649 229.936Z" fill="#8DC351"/>
<path d="M433.842 178.823C433.626 172.979 428.723 170.736 422.422 169.808L422.895 161.747L417.99 161.459L417.529 169.311C416.24 169.232 414.918 169.183 413.606 169.131L414.073 161.229L409.17 160.939L408.692 168.998C407.63 168.958 406.585 168.918 405.568 168.859L405.569 168.83L398.802 168.431L398.494 173.675C398.494 173.675 402.123 173.816 402.057 173.881C404.046 173.998 404.624 175.189 404.752 176.197L404.216 185.379C404.35 185.388 404.529 185.404 404.732 185.443L404.213 185.413L403.455 198.278C403.331 198.898 402.906 199.874 401.518 199.796C401.576 199.855 397.948 199.583 397.948 199.583L396.631 205.387L403.016 205.76C404.203 205.835 405.371 205.923 406.518 205.996L406.042 214.149L410.942 214.438L411.416 206.372C412.722 206.475 414.028 206.564 415.335 206.638L414.859 214.668L419.767 214.958L420.246 206.82C428.522 206.831 434.418 205.092 435.591 197.386C436.536 191.184 433.768 188.228 429.151 186.828C432.081 185.547 434.008 183.101 433.841 178.825L433.842 178.823ZM425.956 195.851C425.598 201.945 415.207 200.639 411.882 200.447L412.517 189.644C415.841 189.839 426.326 189.497 425.952 195.852L425.956 195.851ZM424.569 180.477C424.24 186.02 415.578 184.862 412.808 184.699L413.385 174.902C416.153 175.065 424.907 174.697 424.568 180.479L424.569 180.477Z" fill="white"/>
</g>
<g clip-path="url(#clip3)">
<path d="M410.4 74.1331C426.637 79.84 444.426 71.3035 450.133 55.0664C455.84 38.8292 447.304 21.0401 431.066 15.3332C414.829 9.62633 397.04 18.1628 391.333 34.4C385.626 50.6371 394.163 68.4263 410.4 74.1331Z" fill="black"/>
<path d="M437.982 37.8139L432.765 38.5131L407.572 41.8867C407.693 41.3102 407.852 40.7422 408.047 40.1863C408.829 37.9697 410.177 35.9959 411.957 34.4605C413.737 32.9251 415.887 31.8813 418.195 31.4325C420.502 30.9838 422.887 31.1456 425.112 31.902C427.338 32.6584 429.327 33.9832 430.883 35.745L433.87 35.3447L434.315 35.2847C432.587 32.7852 430.201 30.8122 427.422 29.5838C424.642 28.3553 421.577 27.9193 418.565 28.324C415.554 28.7286 412.712 29.9581 410.355 31.8765C407.999 33.795 406.218 36.3277 405.211 39.1948C405.072 39.5908 404.948 39.9904 404.84 40.3939C404.687 40.965 404.368 41.478 403.923 41.8683C403.479 42.2586 402.929 42.5088 402.343 42.5873L400.768 42.7989L399.652 45.9755L404.288 45.3533L405.79 45.151L407.27 44.9529L433.83 41.3925L436.814 40.9932L442.984 40.1655L444.099 36.9906L437.982 37.8139Z" fill="white"/>
<path d="M441.865 43.3469L407.664 47.9217L404.678 48.3241L398.537 49.1475L397.422 52.3209L403.521 51.5036L408.738 50.8043L433.959 47.4228C433.836 48.003 433.676 48.5746 433.48 49.1341C432.698 51.3538 431.349 53.3305 429.567 54.8679C427.786 56.4053 425.633 57.4499 423.322 57.8981C421.012 58.3462 418.625 58.1823 416.397 57.4226C414.17 56.6629 412.18 55.3338 410.625 53.5673L410.441 53.595L407.203 54.0293C408.931 56.5287 411.316 58.5018 414.095 59.7306C416.874 60.9594 419.938 61.3961 422.95 60.9924C425.961 60.5886 428.803 59.3602 431.16 57.4428C433.517 55.5255 435.298 52.9938 436.306 50.1276C436.447 49.728 436.572 49.3229 436.681 48.9176C436.834 48.3467 437.153 47.8339 437.597 47.4435C438.041 47.0532 438.59 46.8027 439.176 46.7236L440.753 46.5125L441.865 43.3469Z" fill="white"/>
</g>
<path fill-rule="evenodd" clip-rule="evenodd" d="M-14.6271 60.9159C-14.0293 58.9594 -13.4478 57.2575 -12.8287 55.7728C-31.1937 63.3483 -19.9786 74.1573 -19.8337 90.2168C-19.6661 108.712 -9.42269 111.169 2.71537 107.9C0.306431 106.742 -1.93574 105.187 -3.94857 103.323C-15.4784 97.3266 -20.1712 79.0446 -14.6271 60.9159Z" fill="#A2D900"/>
<path fill-rule="evenodd" clip-rule="evenodd" d="M36.3397 57.7123C36.8113 63.2519 36.1391 70.0097 34.1505 77.2594C32.5997 82.9088 30.274 87.856 27.4238 91.9645C24.2361 96.9514 19.4161 101.22 13.1497 104.046C9.64195 105.628 6.10464 106.987 2.71475 107.9C5.58152 109.276 8.68073 110.094 11.8989 110.189C31.8595 110.783 26.212 95.5031 40.1354 80.1781C47.9539 71.5719 44.2681 63.3038 36.3397 57.7123Z" fill="#3D9CCC"/>
<path fill-rule="evenodd" clip-rule="evenodd" d="M9.1361 51.4294C11.7496 50.7841 14.4006 50.5512 16.9778 50.7939C23.8867 51.4486 31.0548 53.9854 36.3393 57.7121C35.5139 48.0153 31.1742 42.0564 24.1865 43.7745C16.5086 45.6652 10.777 47.7449 3.76086 46.3993C-4.88052 44.7415 -9.94361 48.857 -12.8289 55.7739C-12.4719 55.6259 -12.1052 55.48 -11.7254 55.3347C-4.61756 52.6236 2.60119 51.0028 9.1361 51.4294Z" fill="#FFD919"/>
<path fill-rule="evenodd" clip-rule="evenodd" d="M-14.6271 60.916C-20.1712 79.0447 -15.4784 97.3267 -3.94854 103.323C-10.7545 97.0197 -14.907 87.2015 -13.7638 77.3519C-12.2426 64.2378 -1.87989 54.146 9.13719 51.4302C2.60147 51.0018 -4.61647 52.6244 -11.7233 55.3329C-12.1049 55.479 -12.4708 55.6267 -12.8287 55.7729C-13.4478 57.2576 -14.0292 58.9595 -14.6271 60.916Z" fill="#62B247"/>
<path fill-rule="evenodd" clip-rule="evenodd" d="M16.9779 50.7947C14.3998 50.5502 11.7496 50.7849 9.13617 51.4302C17.7415 51.9919 25.1572 56.1126 29.5614 66.0168C33.3811 74.6104 32.4034 84.1686 27.4234 91.9651C30.2737 87.8567 32.6011 82.9086 34.1501 77.2601C36.1406 70.0096 36.8109 63.2525 36.3394 57.713C31.0549 53.9862 23.8859 51.4476 16.9779 50.7947Z" fill="#009367"/>
<path fill-rule="evenodd" clip-rule="evenodd" d="M24.1579 87.7846C18.61 96.3923 7.14127 98.8414 -1.46062 93.2544C-10.0625 87.6674 -12.1313 76.4108 -6.99424 67.5504C-1.24894 57.6438 10.717 55.1332 18.6243 62.0807C26.335 68.8545 29.7041 79.1778 24.1579 87.7846ZM9.13687 51.4292C-1.8794 54.1468 -12.2429 64.2368 -13.7641 77.3509C-14.9073 87.2006 -10.7558 97.0214 -3.94887 103.322C-1.93604 105.186 0.30516 106.744 2.71589 107.901C6.10578 106.988 9.64228 105.627 13.1482 104.046C19.4164 101.219 24.2364 96.9511 27.4223 91.965C32.4049 84.1694 33.3818 74.6094 29.5603 66.0166C25.1579 56.1117 17.7404 51.9917 9.13687 51.4292Z" fill="#00522C"/>
<g clip-path="url(#clip4)">
<path d="M89.2479 229.505C107.613 221.222 115.787 199.619 107.505 181.254C99.222 162.888 77.6194 154.714 59.2538 162.997C40.8882 171.28 32.7144 192.882 40.9971 211.248C49.2797 229.614 70.8824 237.787 89.2479 229.505Z" fill="#473BCB"/>
<path d="M64.8769 175.468L71.8066 190.833L87.4111 190.78L64.8769 175.468Z" fill="white"/>
<path d="M64.8769 175.468L61.4349 202.495L71.8066 190.833L64.8769 175.468Z" fill="white"/>
<path d="M78.9145 206.594L83.6232 217.035L88.5104 193.194L78.9145 206.594Z" fill="white"/>
<path d="M83.6232 217.035L78.9145 206.594L62.5256 204.913L83.6232 217.035Z" fill="white"/>
<path d="M77.8247 204.177L87.4111 190.78L71.8082 190.837L77.8247 204.177Z" fill="white"/>
<path d="M61.4349 202.495L77.8247 204.177L71.8082 190.837L61.4349 202.495Z" fill="white"/>
</g>
</g>
<defs>
<clipPath id="clip0">
<rect width="440" height="215" fill="white"/>
</clipPath>
<clipPath id="clip1">
<rect width="72.9519" height="72.9519" fill="white" transform="translate(142 19.1782) rotate(-60)"/>
</clipPath>
<clipPath id="clip2">
<rect width="88.2925" height="88.2925" fill="white" transform="translate(388.276 132) rotate(19.365)"/>
</clipPath>
<clipPath id="clip3">
<rect width="62.326" height="62.326" fill="white" transform="translate(401.667 5) rotate(19.365)"/>
</clipPath>
<clipPath id="clip4">
<rect width="72.9583" height="72.9583" fill="white" transform="translate(26 177.994) rotate(-24.2748)"/>
</clipPath>
</defs>
</svg>
